X: 27695
T: Mormond Braes
R: barndance
M: 4/4
K: Dmajor
D2|F2 F2 F2 E2|F2 D2 D2 E2|F2 A2 d2 A2|B4 A2 z2||
Bc d2 d2 d2|F2 G2 B2 A2|A2 B2 A2 d2|F E3 D4||

